X:1
T:Will Ye No Come Back Again?
M:4/4
L:1/4
K:C
 C3/2 D/2 E C| A, C G,2| G3/2 A/2 G E| ED/2-C/2 D2| C3/2 D/2 E C| A, C G,2|\
 G3/2 A/2 G E| D3/2 C/2 C2| E G G G| E G G2| c3/2 B/2 A G|A/2-G/2F/2-E/2 D2|\
 E3/2 E/2 D C| A,/2 C3/2 G,2| G3/2 A/2 G E| D3/2 C/2 C2|
